X:1
T:Alma Redemptoris Mater
T:Giovanni Rovetta (1596-1668)
T:Motettti a due, tre e quattro Libro Quarto - Venetia M DC L
T:Alma Redemptoris Mater
T:Wim Looyestijn 2015. May be freely copied for non-commercial use.
T:Wim Looyestijn 2015. May be freely copied for non-commercial use.
T:Wim Looyestijn 2015. May be freely copied for non-commercial use.
T:Wim Looyestijn 2015. May be freely copied for non-commercial use.
T:Wim Looyestijn 2015. May be freely copied for non-commercial use.
T:Wim Looyestijn 2015. May be freely copied for non-commercial use.
T:Wim Looyestijn 2015. May be freely copied for non-commercial use.
T:Wim Looyestijn 2015. May be freely copied for non-commercial use.
C:Giovanni Rovetta (1596-1668)
Z:Wim Looyestijn 2015. May be freely copied for non-commercial use.
%%score [ 1 2 ] 3
L:1/8
Q:1/4=90
M:4/4
K:C
V:1 treble nm="Alto" snm="A"
V:2 treble-8 nm="Tenor" snm="T"
V:3 bass nm="BC" snm="Bc"
V:1
 D8 | D8 | DE FD EF GE | FE GF E4 | D4 z4 | z8 | E8 | E8 | EF GE F2 F2 | DE FD G4- | GF FE E4 | %11
w: Al-|ma,|al- * ma * re- * demp- *|to- * ris * Ma-|ter,||al-|ma|re- * demp- * to- ris,|re- * demp- * to-|* * ris * Ma-|
[M:3/1] D16 F8 | E12 D4 C8 | D4 C4 D4 E4 F4 G4 | A8 A8 z8 | z24 | z24 | z24 | z24 | z24 | %20
w: ter, quae|per vi- a|cae- * * * * *|* li||||||
 z8 E8 ^F8 | G8 A8 G8 | G8 ^F12 G4 | G8 G8 G8 | F12 E4 D8 | E8 E8 A8 | G12 F4 E8 | F8 F8 z8 | %28
w: por- ta|ma- nes et|stel- * la|ma- ris, quae|per vi- a|cae- li, quae|per vi- a|cae- li|
 z8 E8 ^F8 | G24 | F8 F8 G8 | A8 A8 A8 | G12 F4 E8 | D4 C4 D4 E4 F4 G4 | A8 A8 z8 | z8 z8 G4 F4 | %36
w: por- ta|ma-|nes, por- ta|ma- nes, quae|per vi- a|cae- * * * * *|* li|por- ta|
 E8 E8 A8 | F8 E4 F4 G4 F4 | F4 E4 E12 D4 | D16 z8 |[M:4/4] z4 z F FF/G/ | GG/F/ A3 D/D/ D>E | %42
w: ma- nes et|stel- * * * *|la * ma- *|ris.|Suc- cur- re, suc-|cur- re, suc- cur- re ca- den- ti|
 E>E E2 z E EE/F/ | FF z2 z4 | z4 z ^G GG/A/ | AA/G/ FE F>E DE | EF GF E3 D | D4 z4 | %48
w: po- pu- lo, suc- cur- re, suc-|cur- re,|suc- cur- re, suc-|cur- re ca- den- ti po- pu- lo qui|cu- * rat * sur- ge-|re,|
 z4 z ^F FF/G/ | G2 G2 z G GG/A/ | A2 A2 z A D>E | E>E E2 z DDD | z DEE z E F2- | F2 E2 E3 D | D8 | %55
w: suc- cur- re, suc-|cur- re, suc- cur- re, suc-|cur- re ca- den- ti|po- pu- lo qui cu- rat,|qui cu- rat, qui cu-|* rat sur- ge-|re.|
 z2 F2 z AGF | EEEF GGFE | D4 C2 z E | FGAA A2 ^G2 | A4 z4 | z8 | z8 | z8 | z2 z G/F/ EE z2 | %64
w: Tu quae ge- nu-|i- sti tu- um sanc- tum ge- ni-|to- rem na-|tu- * ra mi- ran- *|te,||||ge- nu- i- sti,|
 z2 z A/G/ ^FF z2 | z2 z B/A/ ^GG z2 | z8 | z4 z2 z G/F/ | ECCD EFGG | G3 ^F G4 |[M:3/1] z8 D8 E8 | %71
w: ge- nu- i- sti,|ge- nu- i- sti,||ge- nu-|i- sti tu- um sanc- tum ge- ni-|to- * rem.|Vir- go|
 F24 | E16 z8 | F4 E4 F4 G4 A4 F4 | G4 F4 G4 A4 _B4 G4 | A4 B4 c4 B4 A4 G4 | F4 G4 A4 G4 F4 E4 | %77
w: pri-|us|ac * * * * *||||
 D12 E4 F8 | F8 F12 E4 | F16 z8 | z24 | z24 | z24 | z24 | z24 | z8 G8 E8 | F8 E8 D8 | E8 C8 z8 | %88
w: |pos- te- ri-|us,||||||Ga- bri-|e- lis ab|o- re,|
 z24 | z8 A8 F8 | G8 F8 E8 | F8 D8 z8 | z24 |[M:4/4] z2 DE F2 F2 | z2 FG AA A2- | AD G2- GE E2 | %96
w: |Ga- bri-|e- lis ab|o- re||pec- ca- to- rum-|mi- se- re- re, mi-|* se- re- * * re.|
[M:3/1] z8 E8 E8 | F16 F8 | F4 E4 F4 G4 A4 F4 | G4 F4 G4 A4 _B4 G4 | A4 B4 c4 B4 A4 G4 | %101
w: Vir- go|pri- us|ac * * * * *|||
 F4 G4 A4 G4 F4 E4 | D12 E4 F8 | F8 F12 E4 | F16 z8 | z24 | z24 | z24 | z24 | z24 | z8 G8 E8 | %111
w: ||pos- te- ri-|us,||||||Ga- bri-|
 F8 E8 D8 | E8 C8 z8 | z24 | z8 A8 F8 | G8 F8 E8 | F8 D8 z8 | z24 |[M:4/4] z2 DE F2 F2 | z8 | z8 | %121
w: e- lis ab|o- re,||Ga- bri-|e- lis ab|o- re,||pec- ca- to- rum,|||
 z2 ^G>A A2 A2 | z2 A>_B B2 B2 | z2 AG FEGF | E8 | D16 |] %126
w: pec- ca- to- rum|mi- se- re- re,|pec- ca- to- rum mi- se-|re-|re.|
V:2
 z4 d4- | d4 d4 | z8 | z8 | de fd ^cd ec | fe dc B4 | A4 e4- | e4 e4 | z4 AB cA | _B2 B2 =Bc dB | %10
w: Al-|* ma,|||al- * ma * re- * demp- *|to- * ris * Ma-|ter, al-|* ma|re- * demp- *|to- ris, re- * demp- *|
 ^c2 d2 d2 c2 |[M:3/1] d16 z8 | z24 | z24 | z8 f8 c8 | d8 e8 f8 | f8 e12 f4 | f8 f8 c8 | %18
w: to- ris Ma- *|ter,|||por- ta|ma- nes et|stel- * la|ma- ris, quae|
 _B12 A4 G8 | A4 G4 A4 B4 c4 d4 | e8 e8 z8 | z24 | z8 z8 d8 | _B12 A4 G8 | A8 A8 d8 | c12 B4 A8 | %26
w: per vi- a|cae- * * * * *|* li,||quae|per vi- a|cae- li *||
 B16 ^c8 | d8 A8 B8 | c24 | _B8 d8 e8 | f4 e4 d4 c4 d8 | ^c16 d8 | d12 d4 ^c8 | d12 c4 d4 e4 | %34
w: |* por- ta|ma-|nes, por- ta|ma- * * * *|nes, quae|per vi- a|cae- * * *|
 f8 f8 f4 e4 | d8 d8 e8 | ^c8 c8 c8 | d8 c4 d4 e8 | d8 d8 ^c8 | d16 z8 |[M:4/4] z A AA/_B/ BB z2 | %41
w: * li por- ta|ma- nes et|* * et|stel- * * *|la ma- *|ris.|Suc- cur- re, suc- cur- re,|
 z8 | z8 | z c c^c/d/ dd/c/ e2- | eA/A/ A>B B>B B2 | z8 | z4 z ^c cc/d/ | dd/c/ _BA B>A GA | %48
w: ||suc- cur- re, suc- cur- re, suc- cur-|* re ca- den- ti po- pu- lo,||suc- cur- re, suc-|cur- re ca- den- ti po- pu- lo qui|
 AB cB A2 z G | GB BB/c/ c2 c2 | z c cc/d/ d2 d2 | z eAA A>A A>A | BB z B ^cc z c | d2 d2 d3 ^c | %54
w: cu- * rat * sur- ge-|re, suc- cur- re, suc- cur- re,|suc- cur- re, suc- cur- re|ca- den- ti po- pu- lo qui|cu- rat, qui cu- rat, qui|cu- rat sur- ge-|
 d8 | z8 | z8 | z8 | z8 | z2 c2 z edc | BBBc ddcB | A4 G2 z G | ABcc c2 B2 | c2 z2 z c cB/c/ | %64
w: re.|||||Tu quae ge- nu-|i- sti tu- um sanc- tum ge- ni-|to- rem na-|tu- ra mi- ran- * *|te, na- tu- ra mi-|
 AA z2 z d dc/d/ | BB z2 z2 z e/d/ | cABc ddee | fe e>d e2 z2 | z8 | z8 |[M:3/1] z8 B8 c8 | d24 | %72
w: ran- te, na- tu- ra mi-|ran- te, ge- nu-|i- sti tu- um sanc- tum ge- ni-|to- * * * rem|||Vir- go|pri-|
 ^c16 z8 | z24 | z24 | z24 | z24 | z24 | z24 | c4 B4 c4 d4 e4 c4 | d4 c4 d4 e4 f4 d4 | %81
w: us|||||||ac * * * * *||
 e4 f4 g4 f4 e4 d4 | c4 d4 e4 d4 c4 B4 | A12 B4 c8 | c8 c12 B4 | c16 z8 | z24 | z8 c8 A8 | %88
w: |||pos- te- ri-|us,||su- mens|
 _B8 A8 G8 | A8 F8 z8 | z24 | z8 f8 d8 | e8 d8 ^c8 |[M:4/4] d2 d2 z4 | z8 | z8 |[M:3/1] z8 ^c8 c8 | %97
w: il- * lid|a- ve,||su- mens|il- * lud|a- ve.|||Vir- go|
 d16 d8 | z24 | z24 | z24 | z24 | z24 | z24 | c4 B4 c4 d4 e4 c4 | d4 c4 d4 e4 f4 d4 | %106
w: pri- us|||||||ac * * * * *||
 e4 f4 g4 f4 e4 d4 | c4 d4 e4 d4 c4 B4 | A12 B4 c8 | c8 c12 B4 | c16 z8 | z24 | z8 c8 A8 | %113
w: |||pos- te- ri-|us,||su- mens|
 _B8 A8 G8 | A8 F8 z8 | z24 | z8 f8 d8 | e8 d8 ^c8 |[M:4/4] d2 d2 z2 AB | c2 c2 z2 cd | %120
w: il- * lud|a- ve,||su- mens|il- * lud|a- ve, pec- ca-|to- rum- mi- se-|
 ee e3 A d2- | dB B2 z2 e>f | f2 f2 z2 d>e | ^c3 c d2 c2 | d4 ^c4 | d16 |] %126
w: re- re, mi- se- re-|* * re, mi- se-|re- re, pec- ca-|to- rum mi- se-|re- *|re.|
V:3
 D,8- | D,8 | D4 ^C4 | D2 G,2 A,4 | D,4 A,4 | D,4 E,4 | A,,8- | A,,8 | A,4 D,4 | G,4 G,,4 | A,,8 | %11
w: ||||||X|||Z X||
[M:3/1] D,16 D,8 | A,16 A,8 | _B,24 | F,16 F,8 | _B,,16 A,,8 | _B,,8 C,16 | F,,16 A,,8 | %18
w: |||||||
 _B,,16 C,8 | F,,16 F,,8 | C,24 | G,,16 C,8 | D,16 D,8 | G,,16 G,,8 | D,24 | A,16 A,,8 | %26
w: |||||Z *|||
 E,16- E,8 | D,24 | A,,16 A,,8 | G,,16 G,,8 | D,24 | A,,16 F,,8 | G,,16 A,,8 | _B,,12 A,,4 G,,8 | %34
w: |||Z *||X *|* X||
 F,,16 F,,8 | G,,16 G,,8 | A,,16 A,,8 | _B,,16 G,,8 | G,,8 A,,16 | D,16 z8 | %40
w: |* ^^|X *||||
[M:4/4] D,2 C,2 _B,,2 A,,2 | G,2 ^F,2 _B,4 | A,6 G,2 | F,2 E,2 D,2 ^C,2 | F,4 E,4 | ^C,4 D,4 | %46
w: * * * ^^||||||
 G,,4 A,,4 | D,4 G,,4 | C,4 D,4 | G,,4 C,4 | F,,4 _B,,4 | A,,4 ^F,4 | G,4 A,4 | _B,2 G,2 A,4 | %54
w: ||||* &~~~~~~^^||X *||
 D,8 | D,8 | A,4 E,2 F,2 | G,4 C,4 | D,4 E,4 | A,,8 | E,4 B,,2 C,2 | D,4 G,,2 E,,2 | F,,4 G,,4 | %63
w: |||||||||
 C,2 B,,2 C,2 E,2 | F,2 E,2 D,2 ^F,2 | G,2 F,2 E,2 ^G,2 | A,3 G, F,2 E,2 | D,4 C,2 B,,2 | %68
w: |* * X *|* * X *|||
 C,6 B,,2 | A,,4 G,,4 |[M:3/1] z8 G,8 E,8 | D,24 | A,24 | D,24 | E,24 | F,24 | F,,24 | %77
w: |&`````^ *||||||||
 _B,,16 A,,8 | _B,,8 C,16 | F,16 E,8 | D,24 | C,24 | C,16 C,8 | F,16 E,8 | F,8 G,16 | C,16 C8 | %86
w: |||||||||
 F,16 G,8 | C,16 F,8 | _B,,16 C,8 | F,,16 _B,8 | G,16 A,8 | D,16 _B,8 | G,16 A,8 |[M:4/4] D,8- | %94
w: ||||||||
 D,8 | _B,,4 A,,4 |[M:3/1] z8 A,8 A,8 | D,16 D,8 | D,24 | E,24 | F,24 | F,,24 | _B,,16 A,,8 | %103
w: |||||||||
 _B,,8 C,16 | F,16 E,8 | D,24 | C,24 | C,16 C,8 | F,16 E,8 | F,8 G,16 | C,16 C8 | F,16 G,8 | %112
w: |||||||||
 C,16 F,8 | _B,,16 C,8 | F,,16 _B,8 | G,16 A,8 | D,16 _B,8 | G,16 A,8 |[M:4/4] D,8 | A,8- | %120
w: ||||||||
 A,4 F,4 | E,4 ^C,4 | D,4 G,,4 | A,,8- | A,,8 | D,16 |] %126
w: * &``^^|X *|Z Z||||

